templates/main/source/images/yt.svg

<svg width="20" height="16" viewBox="0 0 20 16" xmlns:xlink="http://www.w3.org/1999/xlink" xmlns="http://www.w3.org/2000/svg"><path d="M19 1.138c.586.655.793 2.138.793 2.138S20 5.035 20 6.793v1.621c0 1.724-.207 3.483-.207 3.483s-.207 1.483-.793 2.138c-.759.827-1.621.862-2 .896-2.793.241-7 .241-7 .241s-5.207-.034-6.793-.207c-.448-.103-1.448-.068-2.207-.93-.586-.655-.793-2.138-.793-2.138S0 10.172 0 8.414v-1.62c0-1.759.207-3.518.207-3.518S.379 1.794 1 1.138C1.759.311 2.621.276 3 .242 5.793.035 10 0 10 0s4.207.035 7 .242c.379.034 1.241.034 2 .896zM7.586 11.587V4.104l6.551 3.828-6.55 3.655z" id="yt" fill="#8C0014" fill-rule="evenodd" stroke="none"/></svg>

<?xml version="1.0" encoding="utf-8"?>
<svg width="20px" height="16px" viewBox="0 0 20 16" version="1.1" xmlns:xlink="http://www.w3.org/1999/xlink" xmlns="http://www.w3.org/2000/svg">
  <desc>Created with Lunacy</desc>
  <path d="M19 1.138C19.586 1.793 19.793 3.276 19.793 3.276C19.793 3.276 20 5.035 20 6.793L20 8.414C20 10.138 19.793 11.897 19.793 11.897C19.793 11.897 19.586 13.38 19 14.035C18.241 14.862 17.379 14.897 17 14.931C14.207 15.172 10 15.172 10 15.172C10 15.172 4.793 15.138 3.207 14.965C2.759 14.862 1.759 14.897 1 14.035C0.414 13.38 0.207 11.897 0.207 11.897C0.207 11.897 0 10.172 0 8.414L0 6.794C0 5.035 0.207 3.276 0.207 3.276C0.207 3.276 0.379 1.794 1 1.138C1.759 0.311 2.621 0.276 3 0.242C5.793 0.035 10 0 10 0C10 0 14.207 0.035 17 0.242C17.379 0.276 18.241 0.276 19 1.138ZM7.58643 11.5866L7.58643 4.1036L14.1374 7.9316L7.58643 11.5866Z" id="yt" fill="#8C0014" fill-rule="evenodd" stroke="none" />
</svg>
